X:47
T:All My Heart This Night Rejoices
%%stretchlast false
M:4/4
L:1/4
K:Eb clef=C1
"^I"[E,G,B,E]2 "^V"[B,,B,DF]2 | "^I"[E,B,EG]3 "^V¹"[D,B,F] | "^I"[E,B,EG] "^I¹"[G,B,EB] "^IV"[A,Ec]2 | "^I¹"[G,B,EB]4 | [G,B,EB] "^vi¹"[E,G,Gc] "^ii"[F,CFA]2 | [F,A,CA] "^V¹"[D,F,FB] "^I"[E,B,EG]2 | [E,B,EG] [E,G,EB] "^IV¹"[C,A,EA] "^I"[E,B,EG] | "^V"[B,,B,DF]2 "^I"[E,G,E]2 | "^iii"[G,B,B]2 "^ii"[F,A,CA] [F,A,DA] | "^I"[E,B,EG]3 "^V¹"[D,B,F] | "^I"[E,G,B,E] "^V"[B,,F,B,D] [F,,F,B,C] "^V/V"[F,,F,=A,C] | "^V"[B,,D,B,]4 | "^V¹"[D,B,FB] "^vi¹"[E,G,Gc] "^ii"[F,CFA]2 | "^IV¹"[C,A,EA] "^V¹"[D,F,FB] "^I"[E,B,EG]2 | [E,B,EG] "^V"[B,,B,DF] "^IV"[A,,CEA] "^I"[E,B,EG] | [B,,B,EF] "^V"[B,,B,DF] "^I"[E,G,E]2 |]
